!!!OTL: Landsknecht als Schlemmer
!!!ARE: Europa, Mitteleuropa, Deutschland
!!!SCT: A0359
!!!YEM: Copyright 1995, estate of Helmut Schaffrath.
**kern
*ICvox
*Ivox
*M4/4
*k[b-e-]
*g:
{4g
=1
4b-
4b-
4cc
4cc
=2
4dd
4dd
4dd
[4ffn
=3
4ffn]
8ee
8dd
4ee
4ee
=4
2dd
4r}
{4b-
=5
4a
4b-
4a
4a
=6
2.g
4gg
=7
4gg
4ffn
4ee
4ee
=8
2dd
4r}
{4dd
=9
2gg
2gg
=10
2ffn
2dd
=11
2ffn
2ee-
=12
2dd
4r}
{4ffn
=13
4dd
4dd
4dd
4b-
=14
4dd
4dd
4dd
4g
=15
4cc
4b-
4a
4a
=16
2g
4r}
{4g
=17
4b-
4b-
4cc
4cc
=18
4dd
4dd
4dd
[4ffn
=19
4ffn]
8ee
8dd
4ee
4ee
=20
2dd
4r}
{4b-
=21
4a
4b-
4a
4a
=22
2.g
4gg
=23
4gg
4ffn
4ee
4ee
=24
2dd
4r}
{4dd
=25
2gg
2gg
=26
2ffn
2dd
=27
2ffn
2ee-
=28
2dd
4r}
{4ffn
=29
4dd
4dd
4dd
4b-
=30
4dd
4dd
4dd
4g
=31
4cc
4b-
4a
4a
=32
2g
2r}
=33
{2gg
4gg
4gg
=34
2ffn
2ee-
=35
4dd
4dd
2dd
=36
4cc
4cc
2cc
=37
2b-
2b-}
=38
{4ffn
4ffn
2ffn
=39
2dd
4dd
4dd
=40
4cc
4cc
2cc}
=41
{4b-
4b-
4b-
4b-
=42
4cc
4b-
4a
4a
=43
2g
2b-}
=44
{4.cc
8cc
4g
4a
=45
4.b-
8cc
4.dd
8ee-
=46
2.ffn
4ee-
=47
4dd
4cc
4b-
4a
=48
2.g}
==
!!!AGN: Romanze, Ballade, Lied
!! Forster II. 1540 No. 17.
!!!ONB: ESAC (Essen Associative Code) Database: ALTDEU
!!!AMT: simple quadruple
!!!AIN: vox
!!!EED: Helmut Schaffrath
!!!EEV: 1.0
*-
